X:4024
T:Dark Girl Dressed in Blue
R:Polka
C:Trad.
O:England
Z:Paul Hardy's Session Tunebook 2015 (see www.paulhardy.net). Creative Commons cc by-nc-sa licenced.
M:2/2
L:1/8
Q:1/2=80
K:D
|:"D"A3G F3G|AB=cA "G"B2G2|"D"A3G F3G|"A"A2dc "D"d4|A3G F3G|"D"AB=cA "G"B2G2|"D"A2d2 "A"cdec|"D"d2f2 d4!fine!:|
|:"D"f2a2 "A"g2fe|"G"d3B "A"A4|"D"f2a2 "A"gfe2|"D"d6 e2|"D"f2a2 "A"g2fe|"G"d2B2 "A"A2B2|"C"=c2c2 B2A2|"G"G3A G4:|

